**kern	**kern	**dynam
*part1	*part1	*part1
*staff2	*staff1	*
*I"Piano	*	*
*clefF4	*clefG2	*
*k[b-e-a-]	*k[b-e-a-]	*
=1	=1	=1
*^	*	*
!	!	!	!LO:DY:a
4G	2BB-	16r	>
.	.	16B-LL	.
.	.	16e-	.
.	.	16b-JJ	.
4G	.	16r	.
.	.	16B-LL	.
.	.	16e-	.
.	.	16b-JJ	.
8FL	4BB-	16r	.
.	.	16B-LL	.
8A-XJ	.	16d	.
.	.	16b-JJ	.
=	=	=	=
4.G	4.E-	16r	.
.	.	16B-LL	.
.	.	16e-	.
.	.	16gJJ	.
.	.	8e-	.
*	*	*^	*
!	!	!	!	!LO:DY:a
8B-	8E-	8g	8e-	mf ] <
4B-	8.E-L	8.gL	4e-	.
.	16FJk	16a-Jk	.	.
=	=	=	=	=
2B-	2G	4.b-	2e-	.
.	.	8b-	.	.
4Bn	4G	8.ee-L	4e-	[
.	.	16ddJk	.	.
=	=	=	=	=
2c	2A-	4.cc	2e-	.
.	.	8cc	.	.
*v	*v	*	*	*
4An	8.ddL	4e- 4f#X	.
.	16ccJk	.	.
*	*v	*v	*
=	=	=
!	!	!LO:DY:a
4.B-	4.e- 4.g 4.b-	>
8BB-	8B- 8e- 8g	.
8.BB-L	8.A-XL 8.d 8.g	.
16BB-Jk	16A-Jk 16d 16fn	.
=	=	=
4E-	4G 4B- 4e-	.
4BB-	4G 4B- 4e-	.
4GG	4G 4B- 4e-	]]
=	=	=
2.EE-; 2.BB- 2.E-	2.G;: 2.B-: 2.e-:	.
==	==	==
*-	*-	*-
!!!system-decoration: {(s1,s2)}
